X:233
T: JETZT BRICHT DIE FINSTRE NACHT HEREIN
N: E0816D
O: Europa, Mitteleuropa, Deutschland, Hessen, Wetterau
R: Kilt - Lied
M: 4/4
L: 1/8
K: G
D2 | G3FG2Ac | B3AG2
B2 | A3AA2Bd | c2B2A2
GB | A3AA2A2 | A2Bdc2e2
d3cBdB2 | AcBAG2
GB | A3AA2A2 | A2Bdc2e2
d3cBdB2 | AcBAG2

